findly-builder/apps/searchassist/src/assets/icons/border-pencil.svg

<svg width="16" height="16" viewBox="0 0 16 16" fill="none" xmlns="http://www.w3.org/2000/svg">
<rect x="0.375" y="0.375" width="15.25" height="15.25" rx="0.625" fill="white" stroke="#0D6EFD" stroke-width="0.75" stroke-dasharray="1 1"/>
<rect width="12" height="12" transform="translate(2 2)" fill="white"/>
<path d="M11.1261 3.3125C10.7265 3.3125 10.3238 3.46199 10.0217 3.76708H10.0187L4.14571 9.74072L3.33283 12.1817C3.23286 12.4819 3.51862 12.7673 3.81869 12.667L6.25693 11.8519L6.32405 11.7879L12.2306 5.97593C12.8377 5.3688 12.8377 4.37421 12.2306 3.76708C11.9285 3.46504 11.5258 3.3125 11.1261 3.3125ZM11.1261 4.09048C11.3245 4.09048 11.5228 4.1637 11.6784 4.31929C11.9865 4.62743 11.9865 5.11558 11.6784 5.42371L11.0621 6.03084C10.9767 5.82033 10.8394 5.59456 10.6227 5.37795C10.4031 5.15829 10.1773 5.02405 9.96681 4.93862L10.577 4.31624C10.7295 4.16675 10.9278 4.08743 11.1261 4.09048ZM9.45121 5.59762C9.5946 5.60982 9.80511 5.66474 10.0675 5.92711C10.3329 6.19254 10.3878 6.40305 10.4031 6.54644C10.4122 6.65627 10.397 6.67153 10.3909 6.68983L6.35455 10.659C6.26913 10.4668 6.13489 10.2624 5.93353 10.0611C5.73522 9.86276 5.53082 9.72852 5.33556 9.64309L9.30781 5.60982C9.32612 5.60067 9.34137 5.58846 9.45121 5.59762ZM4.7986 10.2899C4.92064 10.299 5.11589 10.3478 5.38437 10.6163C5.6498 10.8818 5.69861 11.077 5.70777 11.196C5.70777 11.2113 5.70472 11.2021 5.70777 11.2143L4.96335 11.4614C4.90233 11.3852 4.83826 11.3089 4.76199 11.2326C4.68877 11.1594 4.6125 11.0953 4.53623 11.0373L4.7864 10.2899C4.79555 10.2929 4.7864 10.2899 4.7986 10.2899Z" fill="#0D6EFD"/>
</svg>

<svg width="16" height="16" fill="none" xmlns="http://www.w3.org/2000/svg"><rect x=".375" y=".375" width="15.25" height="15.25" rx=".625" fill="#fff" stroke="#0D6EFD" stroke-width=".75" stroke-dasharray="1 1"/><path fill="#fff" d="M2 2h12v12H2z"/><path d="M11.126 3.313c-.4 0-.802.149-1.104.454h-.003L4.146 9.741l-.813 2.44c-.1.3.186.586.486.486l2.438-.815.067-.064 5.907-5.812a1.567 1.567 0 0 0 0-2.209 1.562 1.562 0 0 0-1.105-.454Zm0 .777a.77.77 0 0 1 .552.23.775.775 0 0 1 0 1.104l-.616.607a1.966 1.966 0 0 0-.44-.653 1.96 1.96 0 0 0-.655-.44l.61-.622a.77.77 0 0 1 .55-.226ZM9.451 5.598c.144.012.354.067.617.33.265.265.32.475.335.618.01.11-.006.126-.012.144l-4.036 3.969a1.996 1.996 0 0 0-.421-.598 1.962 1.962 0 0 0-.598-.418L9.308 5.61c.018-.01.033-.022.143-.012ZM4.8 10.29c.122.009.317.058.585.326.266.266.315.461.324.58 0 .015-.003.006 0 .018l-.745.247a2.203 2.203 0 0 0-.427-.424l.25-.747c.01.003 0 0 .013 0Z" fill="#0D6EFD"/></svg>
